X: 21861
T: Kiss Behind The Door, The
R: barndance
M: 4/4
K: Gmajor
|:(3GFE|D2 B2 B>^AB>c|d2 ^c2 d2 d>e|f>ed>c A>GF>G|(3ABA G2 (3FGF E2|
D2 B2- B>^A B2|d2 ^c2 d>cd>e|f>ed>c A>GF>G|A2 G2 G2:|
|:(3Bcd|g>d (3Bcd g2 a>g|(3fgf e2 e2- e>=f|f>dA>d f2 g>f|(3efe d>^c d2 (3def|
g>dB>d g2 a>g|f2 e2 e2- e>^c|(3ded (3gfe (3ded (3cBA|(3GAG F2 G>A:|

